packages/elvis-assets-icons/icons/svg/src/edit.svg

<svg width="24" height="24" viewBox="0 0 24 24" fill="none" xmlns="http://www.w3.org/2000/svg">
<g clip-path="url(#clip0)">
<path d="M0.75001 24C0.55201 24 0.35901 23.92 0.21901 23.78C0.0330105 23.594 -0.0419895 23.319 0.0230105 23.064L1.79301 16.159C1.79901 16.137 1.81401 16.096 1.82301 16.075C1.82401 16.071 1.83001 16.055 1.83801 16.038C1.87901 15.948 1.92801 15.875 1.98901 15.815L16.515 1.289C17.34 0.46 18.44 0.003 19.613 0C20.791 0 21.89 0.454 22.719 1.279L22.748 1.308C23.569 2.149 24.012 3.256 23.999 4.429C23.985 5.602 23.517 6.698 22.679 7.516L8.18501 22.01C8.12301 22.072 8.04801 22.123 7.95401 22.164C7.90601 22.185 7.87601 22.197 7.84301 22.206L0.93501 23.978C0.874011 23.993 0.81201 24 0.75001 24ZM1.79101 22.209L6.20101 21.078L2.92001 17.803L1.79101 22.209ZM7.65901 20.414L20.679 7.394L16.605 3.32L3.58201 16.344L7.65901 20.414ZM21.738 6.332C22.769 5.207 22.753 3.46 21.679 2.36L21.659 2.34C21.115 1.799 20.391 1.5 19.622 1.5V1.125L19.621 1.5C18.887 1.502 18.2 1.771 17.667 2.262L21.738 6.332Z" fill="black"/>
</g>
<defs>
<clipPath id="clip0">
<path d="M0 0H23.9993V24H0V0Z" fill="white"/>
</clipPath>
</defs>
</svg>

<svg width="24" height="24" fill="none" xmlns="http://www.w3.org/2000/svg"><g clip-path="url(#clip0)"><path d="M.75 24a.755.755 0 01-.531-.22.754.754 0 01-.196-.716l1.77-6.905a.84.84 0 01.045-.121.73.73 0 01.151-.223L16.515 1.289A4.355 4.355 0 0119.613 0c1.178 0 2.277.454 3.106 1.279l.029.029a4.367 4.367 0 011.251 3.121 4.356 4.356 0 01-1.32 3.087L8.185 22.01a.735.735 0 01-.231.154.784.784 0 01-.111.042L.935 23.978A.773.773 0 01.75 24zm1.041-1.791l4.41-1.131-3.281-3.275-1.129 4.406zm5.868-1.795l13.02-13.02-4.074-4.074L3.582 16.344l4.077 4.07zM21.738 6.332a2.893 2.893 0 00-.059-3.972l-.02-.02a2.872 2.872 0 00-2.037-.84v-.375l-.001.375a2.873 2.873 0 00-1.954.762l4.071 4.07z" fill="#000"/></g><defs><clipPath id="clip0"><path d="M0 0h24v24H0V0z" fill="#fff"/></clipPath></defs></svg>
